svg/email_plus_outline.svg

<svg xmlns="http://www.w3.org/2000/svg" viewBox="0 0 24 24"><path d="M19 15v3h-3v2h3v3h2v-3h3v-2h-3v-3zm-5 3H3V8l8 5 8-5v5h2V6c0-1.1-.9-2-2-2H3c-1.1 0-2 .9-2 2v12c0 1.1.9 2 2 2h11zm5-12-8 5-8-5z"/></svg>

<?xml version="1.0" encoding="UTF-8"?><!DOCTYPE svg PUBLIC "-//W3C//DTD SVG 1.1//EN" "http://www.w3.org/Graphics/SVG/1.1/DTD/svg11.dtd"><svg xmlns="http://www.w3.org/2000/svg" xmlns:xlink="http://www.w3.org/1999/xlink" version="1.1" id="mdi-email-plus-outline" width="24" height="24" viewBox="0 0 24 24"><path d="M19 15V18H16V20H19V23H21V20H24V18H21V15H19M14 18H3V8L11 13L19 8V13H21V6C21 4.9 20.1 4 19 4H3C1.9 4 1 4.9 1 6V18C1 19.1 1.9 20 3 20H14V18M19 6L11 11L3 6H19Z" /></svg>
